public/icons/unfavorited.svg

<svg width="24" height="24" viewBox="0 0 24 24" fill="none" xmlns="http://www.w3.org/2000/svg">
<path d="M12 21L10.55 19.7C8.86667 18.1833 7.475 16.875 6.375 15.775C5.275 14.675 4.4 13.6873 3.75 12.812C3.1 11.9373 2.646 11.1333 2.388 10.4C2.12933 9.66667 2 8.91667 2 8.15C2 6.58333 2.525 5.275 3.575 4.225C4.625 3.175 5.93333 2.65 7.5 2.65C8.36667 2.65 9.19167 2.83333 9.975 3.2C10.7583 3.56667 11.4333 4.08333 12 4.75C12.5667 4.08333 13.2417 3.56667 14.025 3.2C14.8083 2.83333 15.6333 2.65 16.5 2.65C18.0667 2.65 19.375 3.175 20.425 4.225C21.475 5.275 22 6.58333 22 8.15C22 8.91667 21.871 9.66667 21.613 10.4C21.3543 11.1333 20.9 11.9373 20.25 12.812C19.6 13.6873 18.725 14.675 17.625 15.775C16.525 16.875 15.1333 18.1833 13.45 19.7L12 21ZM12 18.3C13.6 16.8667 14.9167 15.6373 15.95 14.612C16.9833 13.5873 17.8 12.696 18.4 11.938C19 11.1793 19.4167 10.504 19.65 9.912C19.8833 9.32067 20 8.73333 20 8.15C20 7.15 19.6667 6.31667 19 5.65C18.3333 4.98333 17.5 4.65 16.5 4.65C15.7167 4.65 14.9917 4.87067 14.325 5.312C13.6583 5.754 13.2 6.31667 12.95 7H11.05C10.8 6.31667 10.3417 5.754 9.675 5.312C9.00833 4.87067 8.28333 4.65 7.5 4.65C6.5 4.65 5.66667 4.98333 5 5.65C4.33333 6.31667 4 7.15 4 8.15C4 8.73333 4.11667 9.32067 4.35 9.912C4.58333 10.504 5 11.1793 5.6 11.938C6.2 12.696 7.01667 13.5873 8.05 14.612C9.08333 15.6373 10.4 16.8667 12 18.3Z" fill="#0E0940"/>
</svg>

<svg xmlns="http://www.w3.org/2000/svg" width="24" height="24" fill="none"><path fill="#0E0940" d="m12 21-1.45-1.3c-1.683-1.517-3.075-2.825-4.175-3.925-1.1-1.1-1.975-2.088-2.625-2.963-.65-.875-1.104-1.679-1.362-2.412A6.717 6.717 0 0 1 2 8.15c0-1.567.525-2.875 1.575-3.925C4.625 3.175 5.933 2.65 7.5 2.65c.867 0 1.692.183 2.475.55A5.93 5.93 0 0 1 12 4.75a5.93 5.93 0 0 1 2.025-1.55 5.769 5.769 0 0 1 2.475-.55c1.567 0 2.875.525 3.925 1.575C21.475 5.275 22 6.583 22 8.15c0 .767-.129 1.517-.387 2.25-.259.733-.713 1.537-1.363 2.412s-1.525 1.863-2.625 2.963-2.492 2.408-4.175 3.925L12 21Zm0-2.7c1.6-1.433 2.917-2.663 3.95-3.688 1.033-1.025 1.85-1.916 2.45-2.674.6-.759 1.017-1.434 1.25-2.026.233-.591.35-1.179.35-1.762 0-1-.333-1.833-1-2.5s-1.5-1-2.5-1c-.783 0-1.508.22-2.175.662C13.658 5.754 13.2 6.317 12.95 7h-1.9c-.25-.683-.708-1.246-1.375-1.688A3.862 3.862 0 0 0 7.5 4.65c-1 0-1.833.333-2.5 1s-1 1.5-1 2.5c0 .583.117 1.17.35 1.762.233.592.65 1.267 1.25 2.026.6.758 1.417 1.65 2.45 2.674A108.992 108.992 0 0 0 12 18.3Z"/></svg>
